**kern	**kern	**dynam
*part1	*part1	*part1
*staff2	*staff1	*
*I"Piano	*	*
*clefF4	*clefG2	*
*k[]	*k[]	*
=1	=1	=1
(8.CCL	[4e 4g	.
16GGK	.	.
8G	4a 4cc	.
8GGJ)	.	.
=	=	=
*	*^	*
(8.CCL	4r	2e] 2g	.
16GGK	.	.	.
8G	4b-X 4cc#X	.	.
8GGJ)	.	.	.
=	=	=	=
(8.CCL	4r	2f 2g	.
16GGK	.	.	.
8G	4bn 4dd	.	.
8GGJ)	.	.	.
*	*v	*v	*
=	=	=
(8.CCL	[2e [2g	pp
16GGK	.	.
8G	.	.
8GGJ)	.	.
=	=	=
(8.CCL	2e_ 2g_ [2cc [2ee	.
16GGK	.	.
8G	.	.
8GGJ)	.	.
=	=	=
(8.CCL	2e] 2g] 2cc] 2ee]	.
16GGK	.	.
8G	.	.
8GGJ)	.	.
=	=	=
4CC 4C	4cc 4ee 4gg 4ccc	f
4r	4r	.
==	==	==
*-	*-	*-
!!!system-decoration: {(s1,s2)}
